X: 14629
T: Gan Ainm
R: reel
M: 4/4
K: Dmajor
A2FA Adfd|Bgfg edBd|A2FA Adfd|BdAG FDD2:|
edcd efge|fede fa3|1 bgaf gfef|gfed cdef:|2 bgaf gfed|eaag fddf||
eA3 efge|fede fa3|bgaf gfef|gfed cdef|
eA3 gfeg|fede fa3|bgaf gfed|eaag fddB||

